X:513
T:Alredore
R:Xiraldilla
C:Tradicional
S:Música Tradicional Asturiana, (C) Tello & Tito. Asturies, 2001.
S:http://pagina.de/MusTradAst <telloytito@asturies.org>
O:Somiedu
A:Asturies
Z:Curdión
M:3/8
L:1/8
Q:1/4=150
K:F
C|F2 F|FFG|A2 A-|A2 C|
|F2 F|FFG|A2 A-|A3|
|B3/2B/B|BAG|A2 G|F2 C|
|F2 F|FFG|A2 A-|A2 C|
|F2 F|FFG|A2 A-|A3|
|B3/2B/B|BAG|AFA|AGF|
|GEG|GFE|D2 A|AGF|
|GEG|GFE|D3-|D z2|


